X:19015
T:Xiraldilla (CT 235)
R:Xiraldilla
C:Tradicional
S:Msica Tradicional Asturiana, (C) Tello & Tito. Asturies, 2001.
S:http://pagina.de/MusTradAst <telloytito@asturies.org>
N:Xiraldilla, transcrita en Uviu.
O:Uviu
A:Asturies
Z:Cancioneru de Torner 235
M:3/8
L:1/8
Q:3/8=88
W:El mio querer est malo,
W:yo toi a la cabecera
W:con una vela na mano
W:rogando a dios que nun muerra.
W:
W:Voi por agua, voi,
W:pa mio querer,
W:voi por agua, voi,
W:pronto volver.
K:G
B|:B2A|GcB|(A2G)|F2c|c2B|Adc|[1 (B2A)|G2B:|[2 BGc||
|:ccB|A2B|BBA|[1 G2c:|[2 G2||
